X: 24095
T: Long Note, The
R: reel
M: 4/4
K: Dmixolydian
|D3AAGEF|GEEE c/A/EBG|D3AAGEG|A2GBEAA/G/E|
D3AAGEF|GEEE c/A/EBG|D2A2AGEG|A2GEEDD2|
d2de cAde-|eAde BAGE|Aded cAA/B/c|eaag e/g/ed^c|
d2de cAde|cded cAGF|DEFG Addc|A2GE EDD2|
a2ab afdf|g2ga ge^ce|a2fa -afdf|eaag e/g/edf|
a2ab afdf|g2fa ed^cB|AB^cd e2d^c|A2GE EDD f|
adfa -afdf|g2ga ge^ce|a2fa- afdf|eaag e/d/^cd2|
defa- afdf|g2fa ed^cB|AB^cd e2d^c|A2GE EDEA|
D3A AGEF|GEEE BcBG|D2A2 AGEG|ADGD GAA/G/E|
D2A2 AGEF|GEEE E c/B/c/B/G|BGDA AGEG|ADGA EDD2|
d2de cAde-|eAde- edAG|Aded cAA/B/c/d/|ea2g e/d/^cd2|
d2de cAde-|eAde BEGF|GFGF GABd|cAGE EDD f|
a2ab afdf|ggga ge^ce|a2ab afdf|eaag e/g/edf|
a2ab afdf|g2fa ed^cB|AB^cd e2de|^cAA/B/^c/d/ edd2|
defa- afdf|abed ^cdef|a2ab afdf|eaag e/g/ed2|
a2ab afdf|g2fa ed^cB|AB^cd e2d^c|BAGB EAA/G/E|
d2ff defd|^ceec fgec|dffe f2fg|a2ge edd2|
f2fa edAF|GABG A2GA|~EDFG Adde|^cAGE EDD2|
df2d f2df|^ce2c g3e/^c/|d2fe f2fg|a2ga edd2|
effa edGF|GAAG A2AF|D2FG Adde|^c2AB EAA/G/E|

